fs/vehicle_bus_16_filled.svg

<svg viewBox="0 0 16 16" fill="none" xmlns="http://www.w3.org/2000/svg" height="1em" width="1em">
  <path d="M7.5 3C7.22386 3 7 3.22386 7 3.5C7 3.77614 7.22386 4 7.5 4H8.5C8.77614 4 9 3.77614 9 3.5C9 3.22386 8.77614 3 8.5 3H7.5ZM4.9 1C3.29837 1 2 2.29837 2 3.9V6H1.5C1.22386 6 1 6.22386 1 6.5C1 6.77614 1.22386 7 1.5 7H2V13.7C2 14.418 2.58203 15 3.3 15H4.7C5.41797 15 6 14.418 6 13.7V13H10V13.7C10 14.418 10.582 15 11.3 15H12.7C13.418 15 14 14.418 14 13.7V7H14.5C14.7761 7 15 6.77614 15 6.5C15 6.22386 14.7761 6 14.5 6H14V3.9C14 2.29837 12.7016 1 11.1 1H4.9ZM13 3.9V8H3V3.9C3 2.85066 3.85066 2 4.9 2H11.1C12.1493 2 13 2.85066 13 3.9ZM13 13V13.7C13 13.8657 12.8657 14 12.7 14H11.3C11.1343 14 11 13.8657 11 13.7V13H13ZM5 13V13.7C5 13.8657 4.86569 14 4.7 14H3.3C3.13431 14 3 13.8657 3 13.7V13H5ZM6.5 10.25C6.5 10.6642 6.16421 11 5.75 11C5.33579 11 5 10.6642 5 10.25C5 9.83579 5.33579 9.5 5.75 9.5C6.16421 9.5 6.5 9.83579 6.5 10.25ZM10.25 11C9.83579 11 9.5 10.6642 9.5 10.25C9.5 9.83579 9.83579 9.5 10.25 9.5C10.6642 9.5 11 9.83579 11 10.25C11 10.6642 10.6642 11 10.25 11Z" fill="#212121"/>
</svg>

<svg viewBox="0 0 16 16" fill="none" xmlns="http://www.w3.org/2000/svg" height="1em" width="1em">
  <path d="M7.5 3a.5.5 0 0 0 0 1h1a.5.5 0 0 0 0-1h-1ZM4.9 1A2.9 2.9 0 0 0 2 3.9V6h-.5a.5.5 0 0 0 0 1H2v6.7A1.3 1.3 0 0 0 3.3 15h1.4A1.3 1.3 0 0 0 6 13.7V13h4v.7a1.3 1.3 0 0 0 1.3 1.3h1.4a1.3 1.3 0 0 0 1.3-1.3V7h.5a.5.5 0 0 0 0-1H14V3.9A2.9 2.9 0 0 0 11.1 1H4.9ZM13 3.9V8H3V3.9C3 2.85 3.85 2 4.9 2h6.2c1.05 0 1.9.85 1.9 1.9Zm0 9.1v.7a.3.3 0 0 1-.3.3h-1.4a.3.3 0 0 1-.3-.3V13h2Zm-8 0v.7a.3.3 0 0 1-.3.3H3.3a.3.3 0 0 1-.3-.3V13h2Zm1.5-2.75a.75.75 0 1 1-1.5 0 .75.75 0 0 1 1.5 0Zm3.75.75a.75.75 0 1 1 0-1.5.75.75 0 0 1 0 1.5Z" fill="#212121"/>
</svg>
